svgs/duotone/binoculars.svg

<svg xmlns="http://www.w3.org/2000/svg" viewBox="0 0 512 512"><!-- Font Awesome Pro 5.15.3 by @fontawesome - https://fontawesome.com License - https://fontawesome.com/license (Commercial License) --><defs><style>.fa-secondary{opacity:.4}</style></defs><path d="M400 32h-64a16 16 0 0 0-16 16v48h96V48a16 16 0 0 0-16-16zm-224 0h-64a16 16 0 0 0-16 16v48h96V48a16 16 0 0 0-16-16zm48 256h64V128h-64z" class="fa-secondary"/><path d="M63.91 160C61.4 253.84 3.46 274.22 0 404v44a32 32 0 0 0 32 32h96a32 32 0 0 0 32-32V288h32V128H95.84c-17.63 0-31.45 14.37-31.93 32zm384.18 0c-.48-17.62-14.3-32-31.93-32H320v160h32v160a32 32 0 0 0 32 32h96a32 32 0 0 0 32-32v-44c-3.46-129.78-61.4-150.16-63.91-244z" class="fa-primary"/></svg>

<svg xmlns="http://www.w3.org/2000/svg" viewBox="0 0 512 512"><!--! Font Awesome Pro 6.0.0-alpha3 by @fontawesome - https://fontawesome.com License - https://fontawesome.com/license (Commercial License) --><defs><style>.fa-secondary{opacity:.4}</style></defs><path class="fa-primary" d="M63.88 160.1C61.34 253.9 3.5 274.3 0 404V448c0 17.6 14.4 32 32 32h128c17.6 0 32-14.4 32-32V288h32V128H95.88C78.26 128 64.35 142.5 63.88 160.1zM448.1 160.1C447.6 142.5 433.7 128 416.1 128H288v160h32v160c0 17.6 14.4 32 32 32h128c17.6 0 32-14.4 32-32v-44C508.5 274.3 450.7 253.9 448.1 160.1z"/><path class="fa-secondary" d="M400 32h-64C327.1 32 320 39.13 320 48V96h96.04L416 48C416 39.13 408.9 32 400 32zM224 288h64V128H224V288zM176 32h-64C103.1 32 96 39.13 96 48L95.96 96H192V48C192 39.13 184.9 32 176 32z"/></svg>
